launcher/android/assets/skins/day/svg/mapMultiQuestion2.svg

<svg enable-background="new 0 0 258.00 258.00" height="258" viewBox="0 0 258 258" width="258" xmlns="http://www.w3.org/2000/svg" xmlns:xlink="http://www.w3.org/1999/xlink"><linearGradient id="a" gradientTransform="matrix(0 -1 1 0 -.581108 1.581108)" gradientUnits="objectBoundingBox" x1=".5" x2="1.66222" y1="1.08111" y2="1.08111"><stop offset="0" stop-color="#abc4ab"/><stop offset=".771552" stop-color="#d5e1d5"/><stop offset="1" stop-color="#fff"/></linearGradient><linearGradient id="b" gradientTransform="matrix(-.085460205537 -.996341584633 .996341584633 -.085460205537 -.434241260342 1.538322882466)" gradientUnits="objectBoundingBox" x1=".488891" x2="1.48431" y1=".968456" y2=".968456"><stop offset="0" stop-color="#07620c"/><stop offset="1" stop-color="#389d3e"/></linearGradient><path d="m44 4h170c22.091 0 40 17.9084 40 40v170c0 22.092-17.909 40-40 40h-170c-22.0914 0-40-17.908-40-40v-170c0-22.0916 17.9086-40 40-40z" fill="url(#a)" stroke="#000" stroke-linecap="square" stroke-linejoin="bevel" stroke-width="8"/><path d="m123.485 82.2267-.25-10.75 3.875-9.3749 10.375-8.3751 14-3.9996 10 1.75 8.5 4 7.5 4.9997 7.5 7.25 2.75 9.5-2.5 8.5-6 4.75-8.5 1.75-3.75 3.25-.75 9.0002 8.25 8 41.75 18.25-9.458 19.291-7.584-3.083-6.333-3.5-6.167-4.667-3.666-4.666-7.328-3.06-6.339-.774-6.167 3-5.833 6.334-5.25 8.083-2.583 7.083.25 7.584 2.083 6.583 3.333 5.5 6.5 5.333 6.5.334 7.334-.501 13.583-.249-1.626 11.005-18.499 38.37-48.203-23.269 3-18.25 10.453-5.231 3-7.75-.75-10.75-3.75-8.001-8.5-6.499-10-3.5-10.75.5-7.0001 2-8.75 5.25-4.5001 4.499-.9999 6 1.2499 7.25 3.75 7.501-2.5 5.499-12.25 1.75-29.7499-14 39.25-95.9992 39.2501 17.5 3.75-1z" fill="url(#b)" stroke="#00c800" stroke-linejoin="round" stroke-width="4"/></svg>

﻿<?xml version="1.0" encoding="utf-8"?>
<!DOCTYPE svg PUBLIC "-//W3C//DTD SVG 1.1//EN" "http://www.w3.org/Graphics/SVG/1.1/DTD/svg11.dtd">
<svg xmlns="http://www.w3.org/2000/svg" xmlns:xlink="http://www.w3.org/1999/xlink" version="1.1" baseProfile="full" width="258" height="258" viewBox="0 0 258.00 258.00" enable-background="new 0 0 258.00 258.00" xml:space="preserve">
	<linearGradient id="SVGID_Fill1_" gradientUnits="objectBoundingBox" x1="0.5" y1="1.08111" x2="1.66222" y2="1.08111" gradientTransform="rotate(-90.000000 0.500000 1.081108)">
		<stop offset="0" stop-color="#ABC4AB" stop-opacity="1"/>
		<stop offset="0.771552" stop-color="#D5E1D5" stop-opacity="1"/>
		<stop offset="1" stop-color="#FFFFFF" stop-opacity="1"/>
	</linearGradient>
	<path fill="url(#SVGID_Fill1_)" stroke-width="8" stroke-linecap="square" stroke-linejoin="bevel" stroke="#000000" stroke-opacity="1" d="M 44,4L 214,4C 236.091,4 254,21.9084 254,44L 254,214C 254,236.092 236.091,254 214,254L 44,254C 21.9086,254 4,236.092 4,214L 4,44C 4,21.9084 21.9086,4 44,4 Z "/>
	<linearGradient id="SVGID_Fill2_" gradientUnits="objectBoundingBox" x1="0.488891" y1="0.968456" x2="1.48431" y2="0.968456" gradientTransform="rotate(-94.902489 0.488891 0.968456)">
		<stop offset="0" stop-color="#07620C" stop-opacity="1"/>
		<stop offset="1" stop-color="#389D3E" stop-opacity="1"/>
	</linearGradient>
	<path fill="url(#SVGID_Fill2_)" stroke-width="4" stroke-linejoin="round" stroke="#00C800" stroke-opacity="1" d="M 123.485,82.2267L 123.235,71.4767L 127.11,62.1018L 137.485,53.7267L 151.485,49.7271L 161.485,51.4771L 169.985,55.4771L 177.485,60.4768L 184.985,67.7268L 187.735,77.2268L 185.235,85.7268L 179.235,90.4768L 170.735,92.2268L 166.985,95.4768L 166.235,104.477L 174.485,112.477L 216.235,130.727L 206.777,150.018L 199.193,146.935L 192.86,143.435L 186.693,138.768L 183.027,134.102L 175.699,131.042L 169.36,130.268L 163.193,133.268L 157.36,139.602L 152.11,147.685L 149.527,154.768L 149.777,162.352L 151.86,168.935L 155.193,174.435L 161.693,179.768L 168.193,180.102L 175.527,179.601L 189.11,179.352L 187.484,190.357L 168.985,228.727L 120.782,205.458L 123.782,187.208L 134.235,181.977L 137.235,174.227L 136.485,163.477L 132.735,155.476L 124.235,148.977L 114.235,145.477L 103.485,145.977L 96.4849,147.977L 87.7349,153.227L 83.2348,157.726L 82.2349,163.726L 83.4848,170.976L 87.2348,178.477L 84.7348,183.976L 72.4848,185.726L 42.7349,171.726L 81.9849,75.7268L 121.235,93.2268L 124.985,92.2268L 123.485,82.2267 Z "/>
</svg>
